Dominus_Dark_Funeral/scalable/apps/postscript-viewer.svg

<svg xmlns="http://www.w3.org/2000/svg" xmlns:xlink="http://www.w3.org/1999/xlink" viewBox="0 0 48 48"><defs><linearGradient id="a"><stop stop-color="#fff" offset="0"/><stop stop-color="#999" offset="1"/></linearGradient><linearGradient id="d" x1="30.01" x2="44.77" y1="20.27" y2="22.63" gradientUnits="userSpaceOnUse" xlink:href="#a"/><linearGradient id="e" x1="20.17" x2="14.49" y1="15.82" y2="4.43" gradientUnits="userSpaceOnUse" xlink:href="#a"/><linearGradient id="c" x1="20.16" x2="16.02" y1="32.89" y2="38.44" gradientUnits="userSpaceOnUse" xlink:href="#a"/><linearGradient id="b" x1="16" x2="40.38" y1="37.08" y2="6.49" gradientUnits="userSpaceOnUse"><stop stop-color="#ff2a2a" offset="0"/><stop stop-color="#f55" offset=".1"/><stop stop-color="#ff4242" offset=".3"/><stop stop-color="#ff3636" offset=".42"/><stop stop-color="#ff2a2a" offset=".54"/><stop stop-color="#ff2a2a" offset=".67"/><stop stop-color="#c83737" offset="1"/></linearGradient></defs><path fill="url(#b)" d="M24 .35c-5.83 0-10.52 1.12-13.93 3.33-4.1 2.66-6.27 6.9-6.27 12.27 0 7.23 5.8 16.88 7.58 19.67a54.47 54.47 0 0 0 6.25 8.16c2.54 2.64 4.57 3.87 6.37 3.87 1.8 0 3.83-1.23 6.37-3.87 2-2.08 4.22-4.97 6.25-8.16 1.78-2.79 7.58-12.44 7.58-19.67 0-5.37-2.16-9.62-6.26-12.27C34.52 1.47 29.84.35 24 .35z"/><path fill="url(#c)" d="M5.95 24.72a50.74 50.74 0 0 0 3.22 6.88c1.54.85 3.08 1.67 4.61 2.9a43.36 43.36 0 0 1 6.11 5.97 40.02 40.02 0 0 1 4.72 6.99c1.1-.16 2.31-.83 3.64-1.89-.25-.53-.38-1.03-.72-1.59a33.2 33.2 0 0 0-2.94-4.04 57.3 57.3 0 0 0-3.83-4.1A76.5 76.5 0 0 0 7.71 25.61c-.65-.38-1.17-.6-1.76-.9z"/><path fill="url(#d)" d="M34.31 1.96c-.29 1.08-.63 1.78-.86 3.23-.47 2.91-.83 6.54-1.1 10.77-.28 4.24-.48 9.07-.6 14.4-.09 3.62-.1 7.76-.14 11.8a54.55 54.55 0 0 0 5-6.54c1.79-2.79 7.6-12.44 7.6-19.67 0-5.37-2.17-9.61-6.27-12.27a17.9 17.9 0 0 0-3.63-1.72z"/><path fill="url(#e)" d="M27.34.7c-2.47 1.96-5.1 4.13-7.21 5.56a70.34 70.34 0 0 1-8.82 5.1 38.28 38.28 0 0 1-6.2 2.4c-.5.14-.69.12-1.1.2-.08.67-.21 1.29-.21 1.99 0 .98.31 2.07.5 3.12 1.06-.22 1.78-.29 3.19-.74a40.83 40.83 0 0 0 9.15-4.25 74.68 74.68 0 0 0 6.46-4.63c2.13-1.69 4.19-3.44 5.97-5.03 1.94-1.72 2.22-2.04 3.3-3.08C30.9.95 29.1.86 27.35.7z"/><path fill="#ff2a2a" d="M24 .35c-5.83 0-10.52 1.12-13.93 3.33-4.1 2.66-6.28 6.9-6.28 12.27 0 7.23 5.81 16.88 7.6 19.67a54.47 54.47 0 0 0 6.24 8.16c2.54 2.64 4.56 3.87 6.37 3.87 1.8 0 3.83-1.23 6.37-3.87 2-2.08 4.21-4.97 6.25-8.16 1.78-2.79 7.58-12.44 7.58-19.67 0-5.37-2.16-9.62-6.26-12.27C34.52 1.47 29.84.35 24 .35zm0 1c5.59 0 10.08 1.07 13.35 3.19 3.93 2.54 6 6.6 6 11.75 0 6.92-5.56 16.17-7.27 18.84a52.19 52.19 0 0 1-5.98 7.81c-2.43 2.54-4.37 3.71-6.1 3.71-1.73 0-3.67-1.17-6.1-3.7a52.2 52.2 0 0 1-5.98-7.82c-1.7-2.67-7.27-11.92-7.27-18.84 0-5.14 2.08-9.2 6-11.75 3.27-2.12 7.76-3.2 13.35-3.2z"/></svg>

<?xml version="1.0" encoding="UTF-8" standalone="no"?>
<svg
   xmlns:dc="http://purl.org/dc/elements/1.1/"
   xmlns:cc="http://creativecommons.org/ns#"
   xmlns:rdf="http://www.w3.org/1999/02/22-rdf-syntax-ns#"
   xmlns:svg="http://www.w3.org/2000/svg"
   xmlns="http://www.w3.org/2000/svg"
   xmlns:xlink="http://www.w3.org/1999/xlink"
   xmlns:sodipodi="http://sodipodi.sourceforge.net/DTD/sodipodi-0.dtd"
   xmlns:inkscape="http://www.inkscape.org/namespaces/inkscape"
   viewBox="0 0 48 48"
   version="1.1"
   id="svg37"
   sodipodi:docname="postscript-viewer.svg"
   inkscape:version="0.92.4 (5da689c313, 2019-01-14)">
  <metadata
     id="metadata41">
    <rdf:RDF>
      <cc:Work
         rdf:about="">
        <dc:format>image/svg+xml</dc:format>
        <dc:type
           rdf:resource="http://purl.org/dc/dcmitype/StillImage" />
        <dc:title></dc:title>
      </cc:Work>
    </rdf:RDF>
  </metadata>
  <sodipodi:namedview
     pagecolor="#ffffff"
     bordercolor="#666666"
     borderopacity="1"
     objecttolerance="10"
     gridtolerance="10"
     guidetolerance="10"
     inkscape:pageopacity="0"
     inkscape:pageshadow="2"
     inkscape:window-width="1112"
     inkscape:window-height="480"
     id="namedview39"
     showgrid="false"
     inkscape:zoom="4.9166667"
     inkscape:cx="2.1355932"
     inkscape:cy="24"
     inkscape:window-x="0"
     inkscape:window-y="25"
     inkscape:window-maximized="0"
     inkscape:current-layer="svg37" />
  <defs
     id="defs25">
    <linearGradient
       id="a">
      <stop
         stop-color="#fff"
         offset="0"
         id="stop2" />
      <stop
         stop-color="#999"
         offset="1"
         id="stop4" />
    </linearGradient>
    <linearGradient
       id="d"
       x1="30.01"
       x2="44.77"
       y1="20.27"
       y2="22.63"
       gradientUnits="userSpaceOnUse"
       xlink:href="#a" />
    <linearGradient
       id="e"
       x1="20.17"
       x2="14.49"
       y1="15.82"
       y2="4.43"
       gradientUnits="userSpaceOnUse"
       xlink:href="#a" />
    <linearGradient
       id="c"
       x1="20.16"
       x2="16.02"
       y1="32.89"
       y2="38.44"
       gradientUnits="userSpaceOnUse"
       xlink:href="#a" />
    <linearGradient
       id="b"
       x1="16"
       x2="40.38"
       y1="37.08"
       y2="6.49"
       gradientUnits="userSpaceOnUse">
      <stop
         stop-color="#ff2a2a"
         offset="0"
         id="stop10" />
      <stop
         stop-color="#f55"
         offset=".1"
         id="stop12" />
      <stop
         stop-color="#ff4242"
         offset=".3"
         id="stop14" />
      <stop
         stop-color="#ff3636"
         offset=".42"
         id="stop16" />
      <stop
         stop-color="#ff2a2a"
         offset=".54"
         id="stop18" />
      <stop
         stop-color="#ff2a2a"
         offset=".67"
         id="stop20" />
      <stop
         stop-color="#c83737"
         offset="1"
         id="stop22" />
    </linearGradient>
  </defs>
  <path
     d="m 24,0.35 c -5.83,0 -10.52,1.12 -13.93,3.33 -4.1,2.66 -6.27,6.9 -6.27,12.27 0,7.23 5.8,16.88 7.58,19.67 a 54.47,54.47 0 0 0 6.25,8.16 c 2.54,2.64 4.57,3.87 6.37,3.87 1.8,0 3.83,-1.23 6.37,-3.87 2,-2.08 4.22,-4.97 6.25,-8.16 C 38.4,32.83 44.2,23.18 44.2,15.95 44.2,10.58 42.04,6.33 37.94,3.68 34.52,1.47 29.84,0.35 24,0.35 Z"
     id="path27"
     style="fill:url(#b)"
     inkscape:connector-curvature="0" />
  <path
     d="m 5.95,24.72 a 50.74,50.74 0 0 0 3.22,6.88 c 1.54,0.85 3.08,1.67 4.61,2.9 a 43.36,43.36 0 0 1 6.11,5.97 40.02,40.02 0 0 1 4.72,6.99 c 1.1,-0.16 2.31,-0.83 3.64,-1.89 C 28,45.04 27.87,44.54 27.53,43.98 A 33.2,33.2 0 0 0 24.59,39.94 57.3,57.3 0 0 0 20.76,35.84 76.5,76.5 0 0 0 7.71,25.61 C 7.06,25.23 6.54,25.01 5.95,24.71 Z"
     id="path29"
     style="fill:url(#c)"
     inkscape:connector-curvature="0" />
  <path
     d="m 34.31,1.96 c -0.29,1.08 -0.63,1.78 -0.86,3.23 -0.47,2.91 -0.83,6.54 -1.1,10.77 -0.28,4.24 -0.48,9.07 -0.6,14.4 -0.09,3.62 -0.1,7.76 -0.14,11.8 a 54.55,54.55 0 0 0 5,-6.54 c 1.79,-2.79 7.6,-12.44 7.6,-19.67 0,-5.37 -2.17,-9.61 -6.27,-12.27 A 17.9,17.9 0 0 0 34.31,1.96 Z"
     id="path31"
     style="fill:url(#d)"
     inkscape:connector-curvature="0" />
  <path
     d="m 27.34,0.7 c -2.47,1.96 -5.1,4.13 -7.21,5.56 a 70.34,70.34 0 0 1 -8.82,5.1 38.28,38.28 0 0 1 -6.2,2.4 c -0.5,0.14 -0.69,0.12 -1.1,0.2 -0.08,0.67 -0.21,1.29 -0.21,1.99 0,0.98 0.31,2.07 0.5,3.12 1.06,-0.22 1.78,-0.29 3.19,-0.74 A 40.83,40.83 0 0 0 16.64,14.08 74.68,74.68 0 0 0 23.1,9.45 C 25.23,7.76 27.29,6.01 29.07,4.42 31.01,2.7 31.29,2.38 32.37,1.34 30.9,0.95 29.1,0.86 27.35,0.7 Z"
     id="path33"
     style="fill:url(#e)"
     inkscape:connector-curvature="0" />
  <path
     d="m 24,0.35 c -5.83,0 -10.52,1.12 -13.93,3.33 -4.1,2.66 -6.28,6.9 -6.28,12.27 0,7.23 5.81,16.88 7.6,19.67 a 54.47,54.47 0 0 0 6.24,8.16 c 2.54,2.64 4.56,3.87 6.37,3.87 1.8,0 3.83,-1.23 6.37,-3.87 2,-2.08 4.21,-4.97 6.25,-8.16 C 38.4,32.83 44.2,23.18 44.2,15.95 44.2,10.58 42.04,6.33 37.94,3.68 34.52,1.47 29.84,0.35 24,0.35 Z m 0,1 c 5.59,0 10.08,1.07 13.35,3.19 3.93,2.54 6,6.6 6,11.75 0,6.92 -5.56,16.17 -7.27,18.84 a 52.19,52.19 0 0 1 -5.98,7.81 c -2.43,2.54 -4.37,3.71 -6.1,3.71 -1.73,0 -3.67,-1.17 -6.1,-3.7 A 52.2,52.2 0 0 1 11.92,35.13 C 10.22,32.46 4.65,23.21 4.65,16.29 c 0,-5.14 2.08,-9.2 6,-11.75 3.27,-2.12 7.76,-3.2 13.35,-3.2 z"
     id="path35"
     inkscape:connector-curvature="0"
     style="fill:#ff2a2a" />
</svg>
